!!!OTL: St. Hubert (303), S.626
!!!id: T0493
**kern
*clefG2
*k[]
*G:
{8b
=1
4b
8a
4a
8g
=2
4.g}
=3
{4.a
=4
8b
8cc
8b
8a
8g
8a
=5
2g}
8r
=6
{8b
=7
4b
8a
4a
8g
=8
4.g}
=9
{4.a
=10
8b
8cc
8b
8a
8g
8a
=11
2g}
8r
=12
{16g
16a
=13
4b
8dd
8b
8cc
8dd
=14
4a
8a
4a}
=15
{16g
16a
=16
4b
8b
8b
8cc
8dd
=17
4a
8a
4a}
==
*-
!!!minrhy: 16
!!!meters: 6/8 ]  ZZ[6
!!!cut: St. Hubert (303), S.626
!!!reg: Luxemburg
!!!trd: Singendes Volk, Esch-Alzette 1937 posth.
!!!rhy1: X_  X__X_X__X_  X__.   (x2)
!!!rhy2: X__.  X_X_X_X_X_X_  X___0
!!!key: T0493  16  G 6/8 ]  ZZ[6
!!!mod: PENTATONIK DUR ?]  AMBITUS[5
!!!kad: 111122
!!!akz: 321_23211_321_23211_3322_3322_
!!!fot: 'a__b__a__b__c__cv_
!!!for: 'a__b__a__b__c__c__
!!!fok: '\__^d_\__^d_^a_^a_
!! PHRAS[AUFTAKTIG]
!!!fkt: geistliches Lied
!!!bem: mitgeteilt: hhh Heinrich Godefroid (Lehrer)
!! THILL, Mathias
!! PR[28] 2K[8] 2G[15] 3K[3] 3G[8] 4A[0] 4Ü[0] 5A[0] 6K[0] 6G[0]
!! 7K[0] 7G[0] 8A[0] MEHR[0] SI[33] ABS[39] SR[23] SP[10]
!! ST[12] 2k[5] 2g[23] 3k[5] 3g[5] 4d[0] 4ü[0] 5d[0] 6k[0] 6g[0]
!! 7k[0] 7g[0] 8d[0] mehr[0] si[38] dm[-5] sr[28] sp[10]
!! 1F[15] 2F[54] 3F[17] 4F[0] LF[0] 2P[15] 3P[0] 4P[0] TRI[0] DF[4] AB[41]
!! TF[0] U3K[0] U3[0] U4[0] U4Ü[0] U5[0] U6K[0] U6[0] U7K[0] U7[8]
!! N1[20] N2K[0] N2[25] N3K[0] N3[45] N4[3] N4Ü[0] N5[0] N6K[0] N6[0]
!!!n7k: 0] N7[0] O1[0] O2K[0] O2[0] O3K[0] O3[0] HÖ[0
